X: 0824
M: 2/4
L: 1/16
K: A
|:\
eA (3cBA eA (3cBA | (3GFE BE dE (3GFE |\
efec eaec | (3cBA Bc AAA2 H:|
E2(3GFE BE (3GFE | GE dE BE (3GFE |\
efec agaf | efec agaf |\
ecag fedc | BAGF "DA CAPO"EdcB |]

